Catalina-dark/actions/22/code-variable.svg

<svg width="22" height="22" viewBox="3 3 16 16" xmlns="http://www.w3.org/2000/svg">
<defs>
<style id="current-color-scheme" type="text/css">.ColorScheme-Text {
        color:#f2f2f2
      }</style>
</defs>
<path class="ColorScheme-Text" d="m3 4v5.0015c0-0.0014948-0.0027624 0.99851 1 0.99851h13.981c0.018601 0 1.0186 0.015165 1.0186-1v-4.9151c0-0.084893 0.054619-1.0849-1-1.0849h-14s-1-0.0036924-1 1zm0 8v0.28291 4.7171h2v-5h-1.669zm4 0v7h2v-7zm4 0v3h2v-3zm4 0v3h4v-3z" fill="currentColor"/>
</svg>

<svg xmlns="http://www.w3.org/2000/svg" viewBox="0 0 22 22">
  <defs id="defs3051">
    <style type="text/css" id="current-color-scheme">
      .ColorScheme-Text {
        color:#f2f2f2
      }
      </style>
  </defs>
 <path 
     style="fill:currentColor;fill-opacity:1;stroke:none"      
	 class="ColorScheme-Text"
        d="M 3,4 3,9.0014948 C 3,9 2.9972376,10 4,10 l 13.981399,0 C 18,10 19,10.015165 19,9 L 19,4.0848927 C 19,4 19.054619,3 18,3 L 4,3 C 4,3 3,2.9963076 3,4 Z M 3,12 3,12.282912 3,17 5,17 5,12 3.3310292,12 Z m 4,0 0,7 2,0 0,-7 z m 4,0 0,3 2,0 0,-3 z m 4,0 0,3 4,0 0,-3 z"
     />
</svg>
